;FLAVOR:RepRap
;TIME:950
;Filament used: 1.01812m
;Layer height: 0.2
;MINX:90.02
;MINY:90.02
;MINZ:0.2
;MAXX:139.98
;MAXY:139.98
;MAXZ:19.8
;TARGET_MACHINE.NAME:Creality Ender-3 Pro
;PRESSUREADVANCEPROCESSED
;Generated with Cura_SteamEngine 5.6.0
T0
M82 ;absolute extrusion mode
; Ender 3 Custom Start G-code
;*** Start Preheating ***

G28 ; Home all axes
BED_MESH_PROFILE LOAD="default"
M140 S80 ; Set Heat Bed temperature
M190 S80 ; Wait for Heat Bed temperature
G4 S120; Wait 2 minutes - put delay so that bed material have time to get hot, e.g. ikea mirror
M104 S240 ; Set Extruder temperature
M109 S240 ; Wait for Extruder temperature
;*** End Preheating ***
G92 E0 ; Reset Extruder
M83 ;relative extrusion mode
G1 F3000 E-2.5
;LAYER_COUNT:99
SET_PRESSURE_ADVANCE ADVANCE=0.050000 EXTRUDER=extruder ;PressureAdvanceSettingPlugin
;LAYER:0
M106 S25.5
G0 F6000 X93.614 Y93.131 Z0.2
;TYPE:SKIRT
G1 F3000 E2.5
G1 F1500 X94.377 Y92.472 E0.03336
G1 X95.139 Y91.922 E0.0311
G1 X96.068 Y91.37 E0.03576
G1 X96.979 Y90.935 E0.03341
G1 X97.925 Y90.582 E0.03342
G1 X98.862 Y90.323 E0.03217
G1 X99.902 Y90.132 E0.03499
G1 X101.041 Y90.036 E0.03783
G1 X101.723 Y90.02 E0.02258
G1 X127.89 Y90.02 E0.86597
G1 X128.788 Y90.034 E0.02972
G1 X129.796 Y90.097 E0.03342
G1 X130.794 Y90.249 E0.03341
G1 X131.774 Y90.49 E0.0334
G1 X132.694 Y90.802 E0.03215
G1 X133.586 Y91.192 E0.03222
G1 X134.531 Y91.713 E0.03571
G1 X135.282 Y92.215 E0.02989
G1 X136.154 Y92.919 E0.03709
G1 X136.876 Y93.623 E0.03337
G1 X137.533 Y94.387 E0.03335
G1 X138.123 Y95.206 E0.0334
G1 X138.585 Y95.982 E0.02989
G1 X139.07 Y96.989 E0.03699
G1 X139.41 Y97.9 E0.03218
G1 X139.679 Y98.872 E0.03338
G1 X139.869 Y99.911 E0.03495
G1 X139.964 Y101.041 E0.03753
G1 X139.98 Y101.75 E0.02347
G1 X139.979 Y127.986 E0.86825
G1 X139.967 Y128.766 E0.02582
G1 X139.907 Y129.776 E0.03348
G1 X139.755 Y130.773 E0.03338
G1 X139.516 Y131.753 E0.03338
G1 X139.192 Y132.71 E0.03344
G1 X138.785 Y133.633 E0.03338
G1 X138.299 Y134.514 E0.0333
G1 X137.777 Y135.295 E0.03109
G1 X137.1 Y136.135 E0.0357
G1 X136.475 Y136.786 E0.02987
G1 X135.632 Y137.521 E0.03701
G1 X134.842 Y138.091 E0.03224
G1 X133.943 Y138.625 E0.0346
G1 X133.065 Y139.047 E0.03224
G1 X132.088 Y139.413 E0.03453
G1 X131.114 Y139.682 E0.03344
G1 X130.11 Y139.866 E0.03378
G1 X128.959 Y139.964 E0.03823
G1 X128.25 Y139.98 E0.02347
G1 X101.978 Y139.979 E0.86944
G1 X101.228 Y139.967 E0.02482
G1 X100.219 Y139.906 E0.03345
G1 X99.222 Y139.754 E0.03338
G1 X98.242 Y139.515 E0.03338
G1 X97.285 Y139.19 E0.03345
G1 X96.364 Y138.783 E0.03332
G1 X95.511 Y138.314 E0.03221
G1 X94.643 Y137.732 E0.03459
G1 X93.939 Y137.166 E0.02989
G1 X93.135 Y136.391 E0.03696
G1 X92.476 Y135.628 E0.03336
G1 X91.946 Y134.897 E0.02988
G1 X91.373 Y133.938 E0.03697
G1 X90.937 Y133.027 E0.03342
G1 X90.595 Y132.115 E0.03223
G1 X90.317 Y131.109 E0.03454
G1 X90.133 Y130.101 E0.03391
G1 X90.034 Y128.898 E0.03995
G1 X90.02 Y128.238 E0.02185
G1 X90.021 Y101.939 E0.87033
G1 X90.033 Y101.221 E0.02376
G1 X90.095 Y100.212 E0.03345
G1 X90.247 Y99.215 E0.03338
G1 X90.487 Y98.235 E0.03339
G1 X90.813 Y97.279 E0.03343
G1 X91.221 Y96.357 E0.03337
G1 X91.709 Y95.474 E0.03339
G1 X92.272 Y94.638 E0.03336
G1 X92.863 Y93.907 E0.03111
G1 X93.614 Y93.131 E0.03574
G0 F6000 X93.876 Y93.433
G1 F1500 X94.612 Y92.796 E0.03221
G1 X95.344 Y92.266 E0.02991
G1 X96.241 Y91.731 E0.03456
G1 X97.119 Y91.31 E0.03222
G1 X98.032 Y90.968 E0.03226
G1 X98.969 Y90.709 E0.03217
G1 X99.936 Y90.531 E0.03254
G1 X101.075 Y90.435 E0.03783
G1 X101.732 Y90.42 E0.02175
G1 X127.884 Y90.42 E0.86547
G1 X128.764 Y90.433 E0.02913
G1 X129.736 Y90.492 E0.03223
G1 X130.699 Y90.638 E0.03223
G1 X131.646 Y90.869 E0.03226
G1 X132.534 Y91.169 E0.03102
G1 X133.426 Y91.559 E0.03222
G1 X134.309 Y92.046 E0.03337
G1 X135.06 Y92.548 E0.02989
G1 X135.875 Y93.206 E0.03466
G1 X136.573 Y93.884 E0.0322
G1 X137.209 Y94.621 E0.03222
G1 X137.779 Y95.411 E0.03224
G1 X138.241 Y96.187 E0.02989
G1 X138.695 Y97.129 E0.03461
G1 X139.024 Y98.007 E0.03103
G1 X139.293 Y98.979 E0.03338
G1 X139.47 Y99.945 E0.0325
G1 X139.565 Y101.075 E0.03753
G1 X139.58 Y101.75 E0.02234
G1 X139.579 Y127.98 E0.86805
G1 X139.568 Y128.743 E0.02525
G1 X139.511 Y129.716 E0.03226
G1 X139.366 Y130.679 E0.03223
G1 X139.137 Y131.625 E0.03221
G1 X138.826 Y132.549 E0.03226
G1 X138.434 Y133.44 E0.03221
G1 X137.966 Y134.292 E0.03217
G1 X137.444 Y135.073 E0.03109
G1 X136.811 Y135.858 E0.03337
G1 X136.186 Y136.509 E0.02987
G1 X135.397 Y137.197 E0.03464
G1 X134.637 Y137.747 E0.03105
G1 X133.77 Y138.264 E0.03341
G1 X132.892 Y138.686 E0.03224
G1 X131.981 Y139.028 E0.0322
G1 X131.042 Y139.289 E0.03225
G1 X130.076 Y139.467 E0.03251
G1 X128.925 Y139.565 E0.03823
G1 X128.25 Y139.58 E0.02234
G1 X101.984 Y139.579 E0.86924
G1 X101.251 Y139.568 E0.02426
G1 X100.279 Y139.511 E0.03222
G1 X99.316 Y139.365 E0.03223
G1 X98.37 Y139.136 E0.03221
G1 X97.446 Y138.824 E0.03227
G1 X96.556 Y138.432 E0.03218
G1 X95.733 Y137.981 E0.03106
G1 X94.894 Y137.42 E0.0334
G1 X94.19 Y136.854 E0.02989
G1 X93.437 Y136.129 E0.03459
G1 X92.8 Y135.393 E0.03221
G1 X92.27 Y134.662 E0.02988
G1 X91.734 Y133.765 E0.03458
G1 X91.312 Y132.887 E0.03224
G1 X90.97 Y131.975 E0.03223
G1 X90.71 Y131.037 E0.03221
G1 X90.532 Y130.068 E0.0326
G1 X90.434 Y128.889 E0.03915
G1 X90.42 Y128.238 E0.02155
G1 X90.421 Y101.945 E0.87014
G1 X90.432 Y101.245 E0.02317
G1 X90.49 Y100.272 E0.03226
G1 X90.636 Y99.309 E0.03223
G1 X90.866 Y98.363 E0.03222
G1 X91.179 Y97.44 E0.03225
G1 X91.571 Y96.55 E0.03218
G1 X92.041 Y95.697 E0.03223
G1 X92.584 Y94.889 E0.03222
G1 X93.151 Y94.185 E0.02991
G1 X93.876 Y93.433 E0.03457
G0 F6000 X94.138 Y93.735
G1 F1500 X94.847 Y93.12 E0.03106
G1 X95.579 Y92.59 E0.02991
G1 X96.415 Y92.091 E0.03222
G1 X97.26 Y91.684 E0.03104
G1 X98.139 Y91.353 E0.03108
G1 X99.042 Y91.102 E0.03102
G1 X99.97 Y90.93 E0.03123
G1 X101.109 Y90.834 E0.03783
G1 X101.741 Y90.82 E0.02092
G1 X127.878 Y90.82 E0.86497
G1 X128.74 Y90.832 E0.02853
G1 X129.677 Y90.888 E0.03106
G1 X130.605 Y91.027 E0.03105
G1 X131.518 Y91.248 E0.03109
G1 X132.374 Y91.536 E0.02989
G1 X133.266 Y91.926 E0.03222
G1 X134.087 Y92.379 E0.03103
G1 X134.838 Y92.881 E0.02989
G1 X135.597 Y93.493 E0.03227
G1 X136.271 Y94.146 E0.03106
G1 X136.885 Y94.855 E0.03104
G1 X137.435 Y95.616 E0.03107
G1 X137.897 Y96.392 E0.02989
G1 X138.32 Y97.269 E0.03222
G1 X138.649 Y98.147 E0.03103
G1 X138.9 Y99.052 E0.03108
G1 X139.071 Y99.979 E0.0312
G1 X139.166 Y101.109 E0.03753
G1 X139.18 Y101.75 E0.02122
G1 X139.179 Y127.975 E0.86789
G1 X139.169 Y128.72 E0.02466
G1 X139.115 Y129.657 E0.03106
G1 X138.977 Y130.586 E0.03108
G1 X138.758 Y131.498 E0.03104
G1 X138.46 Y132.388 E0.03106
G1 X138.083 Y133.248 E0.03108
G1 X137.633 Y134.07 E0.03101
G1 X137.111 Y134.851 E0.03109
G1 X136.522 Y135.581 E0.03104
G1 X135.897 Y136.232 E0.02987
G1 X135.162 Y136.873 E0.03227
G1 X134.402 Y137.423 E0.03105
G1 X133.596 Y137.904 E0.03106
G1 X132.751 Y138.312 E0.03105
G1 X131.873 Y138.643 E0.03105
G1 X130.969 Y138.896 E0.03107
G1 X130.042 Y139.068 E0.0312
G1 X128.891 Y139.166 E0.03823
G1 X128.25 Y139.18 E0.02122
G1 X101.99 Y139.179 E0.86904
G1 X101.274 Y139.169 E0.0237
G1 X100.338 Y139.115 E0.03103
G1 X99.409 Y138.976 E0.03109
G1 X98.497 Y138.757 E0.03104
G1 X97.607 Y138.458 E0.03107
G1 X96.748 Y138.081 E0.03104
G1 X95.925 Y137.63 E0.03106
G1 X95.145 Y137.108 E0.03106
G1 X94.441 Y136.542 E0.02989
G1 X93.739 Y135.867 E0.03223
G1 X93.124 Y135.158 E0.03106
G1 X92.594 Y134.427 E0.02988
G1 X92.094 Y133.591 E0.03224
G1 X91.686 Y132.746 E0.03105
G1 X91.355 Y131.868 E0.03105
G1 X91.103 Y130.964 E0.03106
G1 X90.931 Y130.035 E0.03127
G1 X90.833 Y128.856 E0.03915
G1 X90.82 Y128.238 E0.02046
G1 X90.821 Y101.951 E0.86994
G1 X90.831 Y101.268 E0.02261
G1 X90.886 Y100.331 E0.03106
G1 X91.025 Y99.403 E0.03105
G1 X91.245 Y98.491 E0.03105
G1 X91.545 Y97.601 E0.03108
G1 X91.922 Y96.742 E0.03104
G1 X92.373 Y95.92 E0.03103
G1 X92.896 Y95.14 E0.03108
G1 X93.463 Y94.436 E0.02991
G1 X94.138 Y93.735 E0.03221
G0 F6000 X94.401 Y94.037
G1 F1500 X95.082 Y93.444 E0.02988
G1 X95.814 Y92.914 E0.02991
G1 X96.589 Y92.451 E0.02988
G1 X97.402 Y92.058 E0.02988
G1 X98.247 Y91.738 E0.0299
G1 X99.116 Y91.495 E0.02986
G1 X100.004 Y91.329 E0.0299
G1 X101.143 Y91.233 E0.03783
G1 X101.75 Y91.22 E0.02009
G1 X127.873 Y91.22 E0.86451
G1 X128.717 Y91.231 E0.02793
G1 X129.619 Y91.284 E0.0299
G1 X130.512 Y91.416 E0.02987
G1 X131.39 Y91.627 E0.02988
G1 X132.246 Y91.915 E0.02989
G1 X133.073 Y92.277 E0.02988
G1 X133.865 Y92.712 E0.0299
G1 X134.616 Y93.214 E0.02989
G1 X135.319 Y93.781 E0.02989
G1 X135.969 Y94.408 E0.02989
G1 X136.561 Y95.09 E0.02989
G1 X137.091 Y95.821 E0.02988
G1 X137.553 Y96.597 E0.02989
G1 X137.946 Y97.41 E0.02988
G1 X138.264 Y98.255 E0.02988
G1 X138.507 Y99.125 E0.02989
G1 X138.672 Y100.013 E0.02989
G1 X138.767 Y101.143 E0.03753
G1 X138.78 Y101.75 E0.02009
G1 X138.779 Y127.97 E0.86772
G1 X138.77 Y128.697 E0.02406
G1 X138.719 Y129.599 E0.0299
G1 X138.588 Y130.493 E0.0299
G1 X138.379 Y131.371 E0.02987
G1 X138.093 Y132.228 E0.0299
G1 X137.732 Y133.056 E0.02989
G1 X137.3 Y133.848 E0.02986
G1 X136.799 Y134.6 E0.0299
G1 X136.233 Y135.304 E0.02989
G1 X135.608 Y135.955 E0.02987
G1 X134.927 Y136.549 E0.02991
G1 X134.196 Y137.08 E0.0299
G1 X133.422 Y137.544 E0.02986
G1 X132.609 Y137.938 E0.0299
G1 X131.765 Y138.258 E0.02987
G1 X130.895 Y138.503 E0.02991
G1 X130.008 Y138.669 E0.02986
G1 X128.857 Y138.767 E0.03823
G1 X128.25 Y138.78 E0.02009
G1 X101.995 Y138.779 E0.86888
G1 X101.297 Y138.77 E0.0231
G1 X100.396 Y138.719 E0.02987
G1 X99.502 Y138.587 E0.02991
G1 X98.624 Y138.378 E0.02987
G1 X97.767 Y138.091 E0.02991
G1 X96.94 Y137.73 E0.02986
G1 X96.147 Y137.297 E0.0299
G1 X95.396 Y136.796 E0.02988
G1 X94.692 Y136.23 E0.02989
G1 X94.041 Y135.604 E0.02989
G1 X93.448 Y134.923 E0.02988
G1 X92.918 Y134.192 E0.02988
G1 X92.454 Y133.417 E0.02989
G1 X92.06 Y132.604 E0.0299
G1 X91.74 Y131.76 E0.02987
G1 X91.496 Y130.89 E0.0299
G1 X91.33 Y130.002 E0.0299
G1 X91.233 Y128.847 E0.03836
G1 X91.22 Y128.238 E0.02016
G1 X91.221 Y101.956 E0.86977
G1 X91.23 Y101.291 E0.02201
G1 X91.282 Y100.389 E0.0299
G1 X91.414 Y99.496 E0.02987
G1 X91.624 Y98.618 E0.02988
G1 X91.911 Y97.761 E0.02991
G1 X92.273 Y96.934 E0.02988
G1 X92.706 Y96.142 E0.02987
G1 X93.208 Y95.391 E0.02989
G1 X93.775 Y94.687 E0.02991
G1 X94.401 Y94.037 E0.02986
G1 F3000 E-2.5
;MESH:rFlowCube_3_wall_p4.stl
G0 F6000 X101.934 Y100.855
G0 X102.311 Y127.698
;TYPE:WALL-OUTER
G1 F3000 E2.5
G1 F1343.3 X102.233 Y127.462 E0.01102
G1 F1481.5 X102.233 Y102.544 E1.00193
G1 F1353.4 X102.302 Y102.311 E0.0107
G1 F1343.3 X102.538 Y102.233 E0.01102
G1 F1481.5 X127.456 Y102.233 E1.00193
G1 F1353.4 X127.689 Y102.302 E0.0107
G1 F1343.3 X127.767 Y102.536 E0.01094
G1 F1478.4 X127.767 Y127.456 E1.00407
G1 F1353.4 X127.698 Y127.689 E0.0107
G1 F1345.8 X127.462 Y127.767 E0.011
G1 F1481.5 X102.544 Y127.767 E1.00193
G1 F1353.4 X102.311 Y127.698 E0.0107
G0 F6000 X102.233 Y127.462
G0 X102.233 Y127.31
G1 F3000 E-2.5
G0 F6000 X101.97 Y127.31
G0 X102.208 Y127.849
G0 X102.473 Y127.946
G0 X128.01 Y128.01
G0 X128.19 Y128.19
G1 F3000 E2.5
G1 F1239.2 X128.19 Y127.899 E0.01399
G1 F1316.3 X128.224 Y127.689 E0.00963
G1 F1457.5 X128.243 Y127.392 E0.01216
G1 F1506.3 X128.243 Y123.834 E0.14071
G1 F1481.5 X128.243 Y120.276 E0.14306
G1 F1460.4 X128.243 Y116.718 E0.14512
G1 F1437.1 X128.243 Y113.16 E0.14748
G1 F1414.5 X128.243 Y109.602 E0.14983
G1 F1395.3 X128.243 Y106.044 E0.15189
G1 F1374 X128.243 Y102.486 E0.15425
G1 F1299.6 X128.19 Y102.101 E0.01781
G1 F1239.2 X128.19 Y101.81 E0.01399
G1 X127.899 Y101.81 E0.01399
G1 F1353.4 X127.509 Y101.757 E0.01732
G1 F1481.5 X102.484 Y101.757 E1.00623
G1 F1343.3 X102.101 Y101.811 E0.01715
G1 F1237.1 X101.811 Y101.811 E0.01396
G1 X101.811 Y102.101 E0.01396
G1 F1353.4 X101.757 Y102.49 E0.01729
G1 F1481.5 X101.757 Y127.516 E1.00627
G1 F1343.3 X101.811 Y127.899 E0.01715
G1 F1237.1 X101.811 Y128.189 E0.01396
G1 X102.101 Y128.189 E0.01396
G1 F1353.4 X102.49 Y128.243 E0.01729
G1 F1481.5 X127.514 Y128.243 E1.00619
G1 F1345.8 X127.899 Y128.19 E0.0172
G1 F1239.2 X128.19 Y128.19 E0.01399
G0 F6000 X128.19 Y127.899
G0 X128.207 Y127.792
M104 S240
G1 F3000 E-2.5
;MESH:NONMESH
G0 F300 X128.207 Y127.792 Z0.4
G0 F6000 X127.98 Y127.792
G0 X127.968 Y102.506
G0 X127.792 Y102.151
G0 X127.527 Y102.054
G0 X101.94 Y101.94
G0 X101.94 Y100.855
G0 X94.401 Y94.037
;TIME_ELAPSED:44.523025
;LAYER:1
M106 S59.5
;TYPE:SKIRT
G1 F3000 E2.5
G1 F1500 X95.082 Y93.444 E0.03003
G1 X95.814 Y92.914 E0.03006
G1 X96.589 Y92.451 E0.03003
G1 X97.402 Y92.058 E0.03003
G1 X98.247 Y91.738 E0.03005
G1 X99.116 Y91.495 E0.03001
G1 X100.004 Y91.329 E0.03005
G1 X101.143 Y91.233 E0.03802
G1 X101.75 Y91.22 E0.02019
G1 X127.873 Y91.22 E0.86885
G1 X128.717 Y91.231 E0.02807
G1 X129.619 Y91.284 E0.03005
G1 X130.512 Y91.416 E0.03002
G1 X131.39 Y91.627 E0.03003
G1 X132.246 Y91.915 E0.03004
G1 X133.073 Y92.277 E0.03003
G1 X133.865 Y92.712 E0.03005
G1 X134.616 Y93.214 E0.03004
G1 X135.319 Y93.781 E0.03004
G1 X135.969 Y94.408 E0.03004
G1 X136.561 Y95.09 E0.03004
G1 X137.091 Y95.821 E0.03003
G1 X137.553 Y96.597 E0.03004
G1 X137.946 Y97.41 E0.03003
G1 X138.264 Y98.255 E0.03003
G1 X138.507 Y99.125 E0.03004
G1 X138.672 Y100.013 E0.03004
G1 X138.767 Y101.143 E0.03772
G1 X138.78 Y101.75 E0.02019
G1 X138.779 Y127.97 E0.87208
G1 X138.77 Y128.697 E0.02418
G1 X138.719 Y129.599 E0.03005
G1 X138.588 Y130.493 E0.03005
G1 X138.379 Y131.371 E0.03002
G1 X138.093 Y132.228 E0.03005
G1 X137.732 Y133.056 E0.03004
G1 X137.3 Y133.848 E0.03001
G1 X136.799 Y134.6 E0.03005
G1 X136.233 Y135.304 E0.03004
G1 X135.608 Y135.955 E0.03002
G1 X134.927 Y136.549 E0.03006
G1 X134.196 Y137.08 E0.03005
G1 X133.422 Y137.544 E0.03001
G1 X132.609 Y137.938 E0.03005
G1 X131.765 Y138.258 E0.03002
G1 X130.895 Y138.503 E0.03006
G1 X130.008 Y138.669 E0.03001
G1 X128.857 Y138.767 E0.03842
G1 X128.25 Y138.78 E0.02019
G1 X101.995 Y138.779 E0.87324
G1 X101.297 Y138.77 E0.02322
G1 X100.396 Y138.719 E0.03002
G1 X99.502 Y138.587 E0.03006
G1 X98.624 Y138.378 E0.03002
G1 X97.767 Y138.091 E0.03006
G1 X96.94 Y137.73 E0.03001
G1 X96.147 Y137.297 E0.03005
G1 X95.396 Y136.796 E0.03003
G1 X94.692 Y136.23 E0.03004
G1 X94.041 Y135.604 E0.03004
G1 X93.448 Y134.923 E0.03003
G1 X92.918 Y134.192 E0.03003
G1 X92.454 Y133.417 E0.03004
G1 X92.06 Y132.604 E0.03005
G1 X91.74 Y131.76 E0.03002
G1 X91.496 Y130.89 E0.03005
G1 X91.33 Y130.002 E0.03005
G1 X91.233 Y128.847 E0.03855
G1 X91.22 Y128.238 E0.02026
G1 X91.221 Y101.956 E0.87414
G1 X91.23 Y101.291 E0.02212
G1 X91.282 Y100.389 E0.03005
G1 X91.414 Y99.496 E0.03002
G1 X91.624 Y98.618 E0.03003
G1 X91.911 Y97.761 E0.03006
G1 X92.273 Y96.934 E0.03003
G1 X92.706 Y96.142 E0.03002
G1 X93.208 Y95.391 E0.03004
G1 X93.775 Y94.687 E0.03007
G1 X94.401 Y94.037 E0.03001
G1 F3000 E-2.5
;MESH:rFlowCube_3_wall_p4.stl
G0 F12000 X101.84 Y100.755
G0 X127.496 Y127.63
;TYPE:WALL-OUTER
G1 F3000 E2.5
G1 F2400 X102.57 Y127.63 E0.82904
G1 X102.428 Y127.572 E0.0051
G1 X102.37 Y127.43 E0.0051
G1 X102.37 Y102.57 E0.82685
G1 X102.428 Y102.428 E0.0051
G1 X102.57 Y102.37 E0.0051
G1 X127.43 Y102.37 E0.82685
G1 X127.572 Y102.428 E0.0051
G1 X127.63 Y102.57 E0.0051
G1 X127.63 Y127.496 E0.82904
G1 X127.496 Y127.63 E0.0063
G0 F12000 X127.096 Y127.63
G1 F3000 E-2.5
G0 F12000 X127.096 Y127.93
G0 X128.11 Y128.11
G0 X128.38 Y128.38
G1 F3000 E2.5
G1 F2400 X128.38 Y101.62 E0.89004
G1 X101.621 Y101.621 E0.89001
G1 X101.621 Y128.379 E0.88997
G1 X128.38 Y128.38 E0.89001
G0 F12000 X128.38 Y127.98
G0 X127.906 Y127.906
;TYPE:WALL-INNER
G1 F2138.1 X128.005 Y127.43 E0.01815
G1 F2742.9 X128.005 Y102.57 E0.72349
G1 F2138.1 X127.906 Y102.094 E0.01815
